X: 1810
T: Archie Menzie's
R: reel
M: 4/4
K: Fmajor
F2 CF AFCF|Acde fcAF|G2 DG =BGDG|_Bcde fcAG|
F2 CF AFCF|Acde fcAc|BdGB AcFA|GECE F2 FD|
F2 FG AFCF|Acde fcAF|G2 DG =BGDG|_Bcde fcAG|
F2 CF AFCF|Acde fcAc|BdGB AcFA|GECE F2 FA||
|:f2 fg afef|cfag fed=B|g2 dg =bgdg|dg=ba gfeg|
f2 cf afef|cfag fcAc|BdGB AcFA|1 GECE F2 FA:|2 GECE F2 FD||

